X: 429
T: Buoli gechuang shobushang hua
L: 1/8
M: 2/4
K: Bb
c'> c'c'2 [I:setbarnb 1]| 
d' d' c' f' | 
b g f d | 
c4 | 
c'> c'c'2 | 
d' d' c' f' | 
b g f g | 
f4 |]

@@@ Tune index: 9303
